X:1
T:Woodside, 87.87 D
T:Woodside, 87.87 D
T:John T. Grimley, before 1918
T:Public Domain Courtesy of the Cyber Hymnal™
C:John T. Grimley, before 1918
Z:Public Domain
Z:Courtesy of the Cyber Hymnal™
%%score ( 1 2 ) ( 3 4 )
L:1/8
Q:1/4=110
M:4/4
K:Bb
V:1 treble 
V:2 treble 
V:3 bass 
V:4 bass 
V:1
 B3 F D2 F2 | [FB]2 [Fc]2 [Fd]2 [FB]2 | e3 z d [Gc]2 [GB]2 | A2 z [Fc]4 x | B3 F D2 F2 | %5
 [FB]2 [Fc]2 [Fd]2 [FB]2 | c3 z B [FA]2 [DG]2 | [CF]2 [C=E]2 [CF]4 | F3 [FG] [FA]2 [FB]2 | %9
 [Fc]3 [FB] [FB]2 [FA]2 | [FA]2 [FB]2 [Fc]2 [Fd]2 | [Ge]2 e2 [^Fd]4 | [DB]3 [CF] D3 [DF] | %13
 [FB]2 [Fc]2 [Fd]2 [DB]2 | [Ee]3 [Fd] [Gc]2 [FB]2 | [EB]2 [EA]2 [DB]4 |] %16
V:2
 B3 F D2 F2 | x8 | E2 E2 x5 | F3 (B2 =E) x2 | B3 F D2 F2 | x8 | F2 =E2 x5 | x8 | F3 x5 | x8 | x8 | %11
 x2 (AG) x4 | x4 D3 x | x8 | x8 | x8 |] %16
V:3
 B,3 F, D,2 F,2 | [B,D]2 [A,C]2 B,2 [B,,D]2 | [C,C]2 [D,=B,]2 [E,C]2 [=E,C]2 x | %3
 [F,C]2 [G,C]2 [A,C]4 | B,3 F, D,2 F,2 | [D,B,]2 [C,A,]2 [B,,B,]2 [B,,D]2 | %6
 [A,,C]2 [G,,C]2 [F,,C]2 [B,,B,]2 x | [C,A,]2 [C,G,]2 [F,A,]4 | [F,A,]3 [F,B,] [F,C]2 [F,D]2 | %9
 [F,E]3 [F,D] [F,,F,D]2 [F,,F,B,]2 | [F,B,]2 [F,D]2 [E,A,]2 [D,B,]2 | [C,B,]2 (CB,) [D,A,]4 | %12
 [G,B,]3 [A,C] B,3 [F,B,] | [D,B,]2 [F,A,]2 B,2 [_A,B,]2 | [G,B,]3 [F,B,] [E,B,]2 [D,B,]2 | %15
 [C,C]2 [F,C]2 [B,,B,]4 |] %16
V:4
 B,3 F, D,2 F,2 | x4 B,2 x2 | x9 | x8 | B,3 F, D,2 F,2 | x8 | x9 | x8 | x8 | x8 | x8 | x2 C,2 x4 | %12
 x4 B,3 x | x4 B,2 x2 | x8 | x8 |] %16

